!!!OTL: Unmoegliche Dinge
!!!ARE: Europa, Mitteleuropa, Deutschland
!!!SCT: A0293
!!!YEM: Copyright 1995, estate of Helmut Schaffrath.
**kern
*ICvox
*Ivox
*M4/2
*k[]
*C:
{2c
=1
2c
2c
2g
2g
=2
2g
2g
2g}
{2g
=3
2f
2g
2a
2g
=4
2g
2f
2e
2r
=5
2r}
{2e
2f
2f
=6
2g
2e
2f
2e
=7
2g}
{2e
2f
2f
=8
1.5g
3f
1.5e
6d
6c
=9
1d
2c}
==
!!!AGN: Romanze, Ballade, Lied
!! Rhaw, Bicinia I. 1545 No. 96
!!!ONB: ESAC (Essen Associative Code) Database: ALTDEU
!!!AMT: simple quadruple
!!!AIN: vox
!!!EED: Helmut Schaffrath
!!!EEV: 1.0
*-
